X: 4638
T: Bowna
R: slide
M: 12/8
K: Gmajor
|:e|d2 B BAB c2 B A2 B|c3 cBc e2 d B2 c|
d2 B BAB c2 B A2 B|1 c2 e d2 B G3 G2:|2 c2 e d2 B G3 GB||
|:d|g3 gfg a2 g fed|efe ede f2 e def|
gag gfg a2 g fed|efg a2 g fef g2:|

